dist/img/apple_icon.svg

<svg width="26" height="31" viewBox="0 0 26 31" fill="none" xmlns="http://www.w3.org/2000/svg">
<path d="M6.84842 29.4385C6.25694 29.045 5.73272 28.5587 5.29592 27.9985C4.81544 27.4202 4.37025 26.8134 3.96279 26.1816C3.00662 24.7808 2.25676 23.2498 1.73623 21.6356C1.11092 19.7606 0.808105 17.9635 0.808105 16.2056C0.808105 14.2425 1.23279 12.5288 2.06342 11.0888C2.67915 9.96325 3.58443 9.02269 4.68561 8.3644C5.75277 7.70156 6.97896 7.33882 8.23498 7.3144C8.67467 7.3144 9.14811 7.37815 9.65061 7.50002C10.0115 7.60221 10.4512 7.76346 10.9884 7.96408C11.6719 8.22752 12.0478 8.38877 12.1753 8.42815C12.5756 8.5744 12.9122 8.63815 13.1765 8.63815C13.3772 8.63815 13.6603 8.5744 13.9819 8.4769C14.1628 8.41315 14.504 8.30065 14.9925 8.09158C15.4762 7.91533 15.8569 7.7644 16.1597 7.6519C16.6237 7.51502 17.0728 7.38846 17.4731 7.32471C17.9477 7.24989 18.4293 7.23007 18.9084 7.26565C19.7387 7.31991 20.5565 7.49586 21.3356 7.78784C22.6097 8.30065 23.64 9.10127 24.4069 10.2394C24.0827 10.4392 23.7785 10.6696 23.4984 10.9275C22.8887 11.4681 22.3693 12.1026 21.96 12.8072C21.425 13.7701 21.1476 14.8548 21.1547 15.9563C21.1744 17.3091 21.5212 18.5006 22.2047 19.531C22.7071 20.2946 23.3601 20.9476 24.1237 21.45C24.5147 21.7135 24.8512 21.8944 25.1737 22.0163C25.0228 22.485 24.8615 22.9388 24.6712 23.3888C24.2396 24.3979 23.7165 25.3654 23.1084 26.2791C22.5665 27.0656 22.1419 27.6516 21.8194 28.0416C21.3169 28.6369 20.8331 29.0916 20.3447 29.4085C19.8075 29.7647 19.1728 29.955 18.5278 29.955C18.091 29.9718 17.6543 29.9189 17.234 29.7985C16.8731 29.6766 16.5159 29.5444 16.1644 29.3935C15.7989 29.2256 15.422 29.0837 15.0365 28.9688C14.0838 28.7241 13.0848 28.7224 12.1312 28.9641C11.7403 29.0766 11.3644 29.2078 10.9931 29.3691C10.4709 29.5885 10.124 29.7356 9.92342 29.7985C9.52311 29.9156 9.10779 29.9888 8.68779 30.0131C8.03811 30.0131 7.43248 29.8275 6.83248 29.4516L6.84842 29.4385ZM15.4172 6.3619C14.5678 6.78658 13.7569 6.96752 12.9515 6.90846C12.825 6.09752 12.9515 5.26783 13.2881 4.3594C13.5746 3.58977 13.998 2.87832 14.5378 2.2594C15.1078 1.60786 15.7995 1.07381 16.574 0.687209C17.399 0.262522 18.1856 0.0328345 18.9375 -0.000915527C19.035 0.848459 18.9375 1.68377 18.6253 2.58658C18.3364 3.38466 17.9138 4.12777 17.3756 4.78408C16.8263 5.43652 16.1522 5.97263 15.3928 6.36096L15.4172 6.3619Z" fill="white"/>
</svg>

<svg width="26" height="31" fill="none" xmlns="http://www.w3.org/2000/svg"><path d="M6.848 29.439a6.615 6.615 0 01-1.552-1.44 18.717 18.717 0 01-1.333-1.817 17.698 17.698 0 01-2.227-4.546c-.625-1.875-.928-3.672-.928-5.43 0-1.963.425-3.677 1.255-5.117a7.2 7.2 0 012.623-2.725 6.984 6.984 0 013.549-1.05c.44 0 .913.064 1.416.186.36.102.8.263 1.337.464.684.264 1.06.425 1.187.464.4.146.737.21 1.002.21.2 0 .483-.064.805-.161.18-.064.522-.176 1.01-.385.484-.177.865-.328 1.168-.44.464-.137.913-.264 1.313-.327a6.246 6.246 0 011.435-.06 8.5 8.5 0 012.428.523c1.274.513 2.304 1.313 3.07 2.451-.323.2-.627.43-.908.688a7.643 7.643 0 00-1.538 1.88 6.399 6.399 0 00-.805 3.15c.02 1.352.366 2.544 1.05 3.574a6.715 6.715 0 001.919 1.919c.39.264.727.444 1.05.566-.151.469-.313.923-.503 1.373a17.975 17.975 0 01-1.563 2.89c-.541.787-.966 1.373-1.289 1.763-.502.595-.986 1.05-1.474 1.366a3.294 3.294 0 01-1.817.547 4.123 4.123 0 01-1.294-.156 15.04 15.04 0 01-1.07-.405 8.558 8.558 0 00-1.128-.425 5.876 5.876 0 00-2.905-.005c-.39.113-.767.244-1.138.405-.522.22-.869.367-1.07.43-.4.117-.815.19-1.235.214-.65 0-1.256-.186-1.856-.561l.016-.014zm8.57-23.077c-.85.425-1.661.606-2.466.546-.127-.81 0-1.64.336-2.549.287-.77.71-1.48 1.25-2.1A6.654 6.654 0 0116.574.687C17.399.263 18.186.033 18.937 0c.098.85 0 1.685-.312 2.588a7.482 7.482 0 01-1.25 2.197 6.402 6.402 0 01-1.982 1.577h.024z" fill="#fff"/></svg>
